Numix/64x64/categories/applications-geography.svg

<?xml version="1.0" encoding="UTF-8" standalone="no"?>
<svg
   xmlns:dc="http://purl.org/dc/elements/1.1/"
   xmlns:cc="http://creativecommons.org/ns#"
   xmlns:rdf="http://www.w3.org/1999/02/22-rdf-syntax-ns#"
   xmlns:svg="http://www.w3.org/2000/svg"
   xmlns="http://www.w3.org/2000/svg"
   xmlns:sodipodi="http://sodipodi.sourceforge.net/DTD/sodipodi-0.dtd"
   xmlns:inkscape="http://www.inkscape.org/namespaces/inkscape"
   width="64"
   height="64"
   viewBox="0 0 64 64"
   id="svg2"
   version="1.1"
   inkscape:version="0.91 r"
   sodipodi:docname="applications-geography.svg">
  <metadata
     id="metadata22">
    <rdf:RDF>
      <cc:Work
         rdf:about="">
        <dc:format>image/svg+xml</dc:format>
        <dc:type
           rdf:resource="http://purl.org/dc/dcmitype/StillImage" />
      </cc:Work>
    </rdf:RDF>
  </metadata>
  <sodipodi:namedview
     pagecolor="#ffffff"
     bordercolor="#666666"
     borderopacity="1"
     objecttolerance="10"
     gridtolerance="10"
     guidetolerance="10"
     inkscape:pageopacity="0"
     inkscape:pageshadow="2"
     inkscape:window-width="1920"
     inkscape:window-height="1056"
     id="namedview20"
     showgrid="false"
     inkscape:zoom="3.6875"
     inkscape:cx="32"
     inkscape:cy="32"
     inkscape:window-x="0"
     inkscape:window-y="24"
     inkscape:window-maximized="1"
     inkscape:current-layer="svg2" />
  <defs
     id="defs4">
    <clipPath
       id="clip1">
      <path
         d="M 9 9 L 55 9 L 55 55 L 9 55 Z "
         id="path7" />
    </clipPath>
    <clipPath
       id="clip2">
      <path
         d="M 31.667969 54.023438 C 44.082031 54.023438 54.160156 43.90625 54.160156 31.496094 C 54.160156 19.167969 44.082031 9.050781 31.667969 9.050781 C 19.335938 9.050781 9.171875 19.167969 9.171875 31.496094 C 9.171875 43.90625 19.335938 54.023438 31.667969 54.023438 Z "
         id="path10" />
    </clipPath>
  </defs>
  <path
     style="fill:#78b2a3"
     d="M 31.994316,8 C 25.628168,8 19.614432,10.501777 15.067183,15.04288 10.516144,19.587775 8,25.59583 8,31.963989 8,45.215825 18.761822,56 31.994316,56 45.2306,56 56,45.215825 56,31.963989 56,18.75385 45.2306,8 31.994316,8 Z m 0,0.9855484 c 12.686824,0 23.012868,10.3103526 23.012868,22.9784406 0,12.709784 -10.326044,23.050462 -23.012868,23.050462 -12.683034,0 -23.0014995,-10.340678 -23.0014995,-23.050462 0,-6.102819 2.4062525,-11.860696 6.7716115,-16.219853 4.361569,-4.351575 10.128996,-6.7585876 16.229888,-6.7585876 z"
     id="path12"
     inkscape:connector-curvature="0" />
  <g
     style="clip-rule:nonzero"
     id="g14"
     clip-path="url(#clip1)"
     transform="matrix(0.97007973,0,0,0.97038616,1.2814402,1.2717363)">
    <g
       id="g16"
       clip-path="url(#clip2)">
      <path
         style="fill:#78b2a3"
         d="m 24.042969,11.113281 c -0.117188,0 -0.242188,0.04687 -0.363281,0.117188 0.292968,-0.08984 0.433593,-0.117188 0.363281,-0.117188 m 7.390625,1.4375 0.07031,-1.078125 -1.140625,0.07031 0.152344,1.007812 0.917969,0 m -12.878906,18.6875 c -0.226563,-0.214843 -0.07813,-1.152343 -0.07813,-1.152343 0,0 -3.425781,-1.804688 -7.160156,-2.890626 -0.457031,-0.132812 -0.222656,-1.082031 0.226563,-1.441406 l -0.148438,-1.007812 c -0.07813,-0.507813 0.761719,-2.960938 1.601563,-3.175782 0.839844,-0.214843 -0.07813,1.445313 -0.07813,1.445313 l -0.835938,0.5 c 0,0 0.992188,1.160156 1.21875,1.160156 0.226563,0 0.613281,-0.582031 0.613281,-0.582031 l -1.070312,-0.722656 0.992188,-0.429688 0.0625,-0.382812 0.164062,-0.05078 1.640625,-2.480468 c 1.132813,-0.46875 2.527344,-1.042969 2.703125,-1.128906 0.304688,-0.140626 2.441406,-1.367188 2.816406,-1.652344 0.386719,-0.292969 1.21875,-0.214844 1.523438,-0.214844 0.308594,0 0.761718,-0.148438 0.839844,-0.945312 0.07422,-0.792969 0.378906,-0.9375 0.605468,-0.714844 0.234375,0.207031 -0.226562,0.574218 0.308594,0.714844 0.53125,0.144531 0.988281,0.507812 1.371094,0.144531 0.28125,-0.261719 -0.09766,-0.558594 -0.34375,-0.789063 l 4.230468,0 0.457032,-1.300781 -0.988282,-0.144531 -3.660156,-0.363282 0,-0.429687 -0.292968,0.05078 C 25.671875,11.074219 28.019531,11.4375 26.25,10.175781 c -0.105469,-0.07813 -1.652344,2.441407 -2.050781,2.390625 -0.710938,-0.09375 -1.632813,-0.09766 -1.828125,0.128906 -0.261719,0.3125 0.578125,-1.054687 1.308594,-1.464843 -0.867188,0.253906 -2.421876,-0.535157 -5.222657,1.445312 -0.949219,0.671875 -3.328125,3.386719 -4.308593,4.425781 -4.136719,4.882813 -4.46875,9.058594 -4.46875,9.238282 0,0.367187 0.878906,0.566406 0.953124,1.003906 0.07813,0.429688 -1.445312,1.875 -1.445312,2.589844 0,0.332031 -0.761719,3.933594 0.910156,8.4375 1.484375,4.277344 4.363282,8.046875 4.734375,8.28125 l 1.054688,-0.558594 c 0,0 -1.753907,-3.097656 -1.824219,-3.390625 -0.07813,-0.289063 1.980469,-4.472656 2.96875,-4.324219 0.988281,0.136719 0.761719,0.429688 1.375,0.07031 0.605469,-0.355469 0.988281,-3.320313 1.671875,-3.605469 0.691406,-0.292969 1.445313,-0.652344 1.375,-1.375 C 21.375,32.746094 18.78125,31.453125 18.554688,31.238281 M 35.089844,10.03125 33.035156,9.308594 l 0.375,1.152344 1.679688,-0.429688 m -7.695313,2.664062 c 0.230469,0 4.800781,-3.027343 4.34375,-3.097656 -0.457031,-0.074218 -0.535156,0 -1.757812,-0.144531 -1.21875,-0.144531 -2.511719,1.730469 -2.820313,2.019531 -0.296875,0.292969 -0.199218,1.222656 0.234375,1.222656 m 20.972657,21.75 0.589843,-0.761718 -0.589843,-0.207032 -0.4375,0.554688 -0.519532,0.761719 L 47.851562,35 48.367188,34.445312 m 2.582031,2.507813 -0.148438,-1.113281 -0.957031,0 -0.07031,0.832031 -0.886719,-0.136719 -0.222657,-0.902344 -0.441406,-0.28125 -0.519531,0.625 -0.515625,-0.136718 -0.148438,0.480468 0.589844,0.144532 0,4.519531 2.089844,0.5 c -0.05078,0.08594 -0.08203,0.15625 -0.09766,0.1875 -0.148438,0.488281 0.585937,0.703125 1.109375,0.488281 0.1875,-0.07031 1.390625,-0.539062 1.769531,-1.445312 0.535156,-1.261719 0.878906,-3.085938 0.96875,-3.671875 l -0.234375,-0.507813 -1.476563,0.554688 -0.8125,-0.136719 0.0039,0 M 50.207031,18.449219 C 46.835938,13.339844 38.730469,9.992188 38.730469,9.992188 l -2.082031,1.09375 -0.300782,-0.480469 -0.734375,-0.28125 0,0.625 0.664063,0.5625 -0.445313,0.207031 -1.691406,0.136719 -3.835937,2.082031 0.367187,1.675781 -0.445313,0.136719 -0.214843,0.34375 1.25,1.875 0.07422,0.632812 -1.03125,0.207032 0,1.25 -0.589844,0.136718 0.07813,0.976563 -5.019531,3.476563 0.148437,1.941406 C 25.292969,27.078125 28.164062,30 28.164062,30 c 0,0 3.320313,0.136719 4.054688,-0.28125 0.742188,-0.414062 0.222656,0.417969 0.445312,0.625 0.21875,0.210938 0.296876,1.667969 0.511719,1.8125 0.230469,0.136719 0,0.96875 0.300781,1.25 0.292969,0.277344 0.292969,3.613281 0.292969,3.613281 0,0 1.769531,2.988281 1.769531,3.753907 0,0.761718 -0.07812,0.691406 1.328126,0.625 1.402343,-0.07031 1.695312,-0.625 1.992187,-0.832032 0.292969,-0.207031 0.292969,-0.695312 0.585937,-1.113281 0.300782,-0.417969 0.816407,-2.011719 1.480469,-2.570313 0.664063,-0.5625 2.433594,-0.976562 2.578125,-1.949218 0.148438,-0.976563 0.8125,-1.738282 0.8125,-1.738282 L 47.5,29.824219 l -0.08594,0.457031 -0.07812,1.738281 0.964843,-0.351562 -0.07813,-1.875 -0.339844,-0.367188 0.04688,-0.05078 c 0,0 -0.222657,-0.417969 -0.515626,-0.417969 -0.292968,0 -2.0625,0.417969 -2.363281,0.347657 -0.292969,-0.07422 -1.542969,-3.40625 -1.761719,-3.542969 -0.230468,-0.144531 -1.628906,-2.433594 -1.628906,-2.433594 0,0 3.25,3.890625 3.761719,5.421875 0.300781,0.886719 1.425781,0.05859 2.34375,-0.871094 l 0.242187,0.589844 0.585938,-0.136719 -0.07031,-0.695312 0.664062,0 0,1.042969 -0.222656,0.558593 -0.07813,0.898438 0.59375,0.558593 0.292969,-0.488281 0.957031,-0.902343 1.105469,-0.554688 0.292968,0.554688 0.148438,0.765624 -0.292969,0.835938 -0.589844,0.488281 -0.292969,1.25 0,0.625 -0.664062,-0.417969 -0.07422,-1.320312 -0.960937,0.07031 -0.4375,1.179688 0.664062,0.976562 1.542969,0.207032 1.257813,-1.183594 0.140624,-2.285156 0.5625,-0.742188 c 0.363282,0.9375 0.625,1.914063 0.625,2.824219 0,0.996094 0.785157,-0.507813 0.402344,-3.546875 0,-0.0078 -0.613281,-7.234375 -3.953125,-10.582031 z m -14.746093,2.996093 -3.976563,-0.136718 1.691406,-1.394532 0.886719,0 1.398438,0.976563 0,0.554687 m 4.871093,-0.480468 0,0.625 -1.691406,0 0.140625,0.414062 -1.027344,0.136719 -0.07813,0.347656 -0.734375,-0.136719 -1.328125,-0.273437 0.21875,-0.351563 0.222657,-0.417968 0.742187,-0.769532 0.292969,0.5625 1.105468,-0.07422 0.585938,-0.625 2.292969,0.417968 -0.742188,0.144532 m 0.144531,-0.90625 -0.878906,0.136718 -0.152344,-0.625 1.109376,-0.136718 0.148437,-0.632813 0.808594,0.839844 -1.035157,0.417969 m 4.28125,21.613281 -0.519531,0.425781 0.07031,1.039063 0.664062,0 0,-0.902344 0.59375,-0.769531 0,-1.59375 -0.371094,-0.07422 -0.4375,1.875 m -4.941406,-2.082031 c 0,0 -0.519531,0.136718 0.07422,0.351562 0.585937,0.207032 2.949219,-3.40625 2.949219,-3.40625 l -1.992188,1.25 -1.03125,1.804688 m -4.015625,13.328125 -0.441406,-0.425781 -0.878906,-0.136719 -0.152344,0.425781 -1.175781,-0.144531 -0.07813,-0.558594 -0.886719,0 -0.957031,0.558594 -1.691407,0 -0.152343,-0.417969 -2.71875,-0.285156 -0.445313,0.421875 -1.105468,-0.277344 -0.148438,-0.976563 -0.515625,-0.07812 -0.59375,1.054687 -1.984375,-0.07422 c 0.359375,0.171875 3.328125,1.941406 7.882812,2.3125 6.042969,0.488282 8.921876,-0.976562 8.921876,-0.976562 L 38.457031,53.125 Z"
         id="path18"
         inkscape:connector-curvature="0" />
    </g>
  </g>
</svg>

<svg width="64" xmlns="http://www.w3.org/2000/svg" height="64" viewBox="0 0 64 64" xmlns:xlink="http://www.w3.org/1999/xlink">
<defs>
<clipPath id="clip1">
<path d="M 9 9 L 55 9 L 55 55 L 9 55 Z "/>
</clipPath>
<clipPath id="clip2">
<path d="M 31.667969 54.023438 C 44.082031 54.023438 54.160156 43.90625 54.160156 31.496094 C 54.160156 19.167969 44.082031 9.050781 31.667969 9.050781 C 19.335938 9.050781 9.171875 19.167969 9.171875 31.496094 C 9.171875 43.90625 19.335938 54.023438 31.667969 54.023438 Z "/>
</clipPath>
</defs>
<path style="fill:#78b2a3" d="M 31.660156 6.933594 C 25.097656 6.933594 18.898438 9.511719 14.210938 14.191406 C 9.519531 18.875 6.925781 25.066406 6.925781 31.628906 C 6.925781 45.285156 18.019531 56.398438 31.660156 56.398438 C 45.304688 56.398438 56.40625 45.285156 56.40625 31.628906 C 56.40625 18.015625 45.304688 6.933594 31.660156 6.933594 Z M 31.660156 7.949219 C 44.738281 7.949219 55.382812 18.574219 55.382812 31.628906 C 55.382812 44.726562 44.738281 55.382812 31.660156 55.382812 C 18.585938 55.382812 7.949219 44.726562 7.949219 31.628906 C 7.949219 25.339844 10.429688 19.40625 14.929688 14.914062 C 19.425781 10.429688 25.371094 7.949219 31.660156 7.949219 Z "/>
<g style="clip-rule:nonzero;clip-path:url(#clip1)">
<g style="clip-path:url(#clip2)">
<path style="fill:#78b2a3" d="M 24.042969 11.113281 C 23.925781 11.113281 23.800781 11.160156 23.679688 11.230469 C 23.972656 11.140625 24.113281 11.113281 24.042969 11.113281 M 31.433594 12.550781 L 31.503906 11.472656 L 30.363281 11.542969 L 30.515625 12.550781 L 31.433594 12.550781 M 18.554688 31.238281 C 18.328125 31.023438 18.476562 30.085938 18.476562 30.085938 C 18.476562 30.085938 15.050781 28.28125 11.316406 27.195312 C 10.859375 27.0625 11.09375 26.113281 11.542969 25.753906 L 11.394531 24.746094 C 11.316406 24.238281 12.15625 21.785156 12.996094 21.570312 C 13.835938 21.355469 12.917969 23.015625 12.917969 23.015625 L 12.082031 23.515625 C 12.082031 23.515625 13.074219 24.675781 13.300781 24.675781 C 13.527344 24.675781 13.914062 24.09375 13.914062 24.09375 L 12.84375 23.371094 L 13.835938 22.941406 L 13.898438 22.558594 L 14.0625 22.507812 L 15.703125 20.027344 C 16.835938 19.558594 18.230469 18.984375 18.40625 18.898438 C 18.710938 18.757812 20.847656 17.53125 21.222656 17.246094 C 21.609375 16.953125 22.441406 17.03125 22.746094 17.03125 C 23.054688 17.03125 23.507812 16.882812 23.585938 16.085938 C 23.660156 15.292969 23.964844 15.148438 24.191406 15.371094 C 24.425781 15.578125 23.964844 15.945312 24.5 16.085938 C 25.03125 16.230469 25.488281 16.59375 25.871094 16.230469 C 26.152344 15.96875 25.773438 15.671875 25.527344 15.441406 L 29.757812 15.441406 L 30.214844 14.140625 L 29.226562 13.996094 L 25.566406 13.632812 L 25.566406 13.203125 L 25.273438 13.253906 C 25.671875 11.074219 28.019531 11.4375 26.25 10.175781 C 26.144531 10.097656 24.597656 12.617188 24.199219 12.566406 C 23.488281 12.472656 22.566406 12.46875 22.371094 12.695312 C 22.109375 13.007812 22.949219 11.640625 23.679688 11.230469 C 22.8125 11.484375 21.257812 10.695312 18.457031 12.675781 C 17.507812 13.347656 15.128906 16.0625 14.148438 17.101562 C 10.011719 21.984375 9.679688 26.160156 9.679688 26.339844 C 9.679688 26.707031 10.558594 26.90625 10.632812 27.34375 C 10.710938 27.773438 9.1875 29.21875 9.1875 29.933594 C 9.1875 30.265625 8.425781 33.867188 10.097656 38.371094 C 11.582031 42.648438 14.460938 46.417969 14.832031 46.652344 L 15.886719 46.09375 C 15.886719 46.09375 14.132812 42.996094 14.0625 42.703125 C 13.984375 42.414062 16.042969 38.230469 17.03125 38.378906 C 18.019531 38.515625 17.792969 38.808594 18.40625 38.449219 C 19.011719 38.09375 19.394531 35.128906 20.078125 34.84375 C 20.769531 34.550781 21.523438 34.191406 21.453125 33.46875 C 21.375 32.746094 18.78125 31.453125 18.554688 31.238281 M 35.089844 10.03125 L 33.035156 9.308594 L 33.410156 10.460938 L 35.089844 10.03125 M 27.394531 12.695312 C 27.625 12.695312 32.195312 9.667969 31.738281 9.597656 C 31.28125 9.523438 31.203125 9.597656 29.980469 9.453125 C 28.761719 9.308594 27.46875 11.183594 27.160156 11.472656 C 26.863281 11.765625 26.960938 12.695312 27.394531 12.695312 M 48.367188 34.445312 L 48.957031 33.683594 L 48.367188 33.476562 L 47.929688 34.03125 L 47.410156 34.792969 L 47.851562 35 L 48.367188 34.445312 M 50.949219 36.953125 L 50.800781 35.839844 L 49.84375 35.839844 L 49.773438 36.671875 L 48.886719 36.535156 L 48.664062 35.632812 L 48.222656 35.351562 L 47.703125 35.976562 L 47.1875 35.839844 L 47.039062 36.320312 L 47.628906 36.464844 L 47.628906 40.984375 L 49.71875 41.484375 C 49.667969 41.570312 49.636719 41.640625 49.621094 41.671875 C 49.472656 42.160156 50.207031 42.375 50.730469 42.160156 C 50.917969 42.089844 52.121094 41.621094 52.5 40.714844 C 53.035156 39.453125 53.378906 37.628906 53.46875 37.042969 L 53.234375 36.535156 L 51.757812 37.089844 L 50.945312 36.953125 L 50.949219 36.953125 M 50.207031 18.449219 C 46.835938 13.339844 38.730469 9.992188 38.730469 9.992188 L 36.648438 11.085938 L 36.347656 10.605469 L 35.613281 10.324219 L 35.613281 10.949219 L 36.277344 11.511719 L 35.832031 11.71875 L 34.140625 11.855469 L 30.304688 13.9375 L 30.671875 15.613281 L 30.226562 15.75 L 30.011719 16.09375 L 31.261719 17.96875 L 31.335938 18.601562 L 30.304688 18.808594 L 30.304688 20.058594 L 29.714844 20.195312 L 29.792969 21.171875 L 24.773438 24.648438 L 24.921875 26.589844 C 25.292969 27.078125 28.164062 30 28.164062 30 C 28.164062 30 31.484375 30.136719 32.21875 29.71875 C 32.960938 29.304688 32.441406 30.136719 32.664062 30.34375 C 32.882812 30.554688 32.960938 32.011719 33.175781 32.15625 C 33.40625 32.292969 33.175781 33.125 33.476562 33.40625 C 33.769531 33.683594 33.769531 37.019531 33.769531 37.019531 C 33.769531 37.019531 35.539062 40.007812 35.539062 40.773438 C 35.539062 41.535156 35.460938 41.464844 36.867188 41.398438 C 38.269531 41.328125 38.5625 40.773438 38.859375 40.566406 C 39.152344 40.359375 39.152344 39.871094 39.445312 39.453125 C 39.746094 39.035156 40.261719 37.441406 40.925781 36.882812 C 41.589844 36.320312 43.359375 35.90625 43.503906 34.933594 C 43.652344 33.957031 44.316406 33.195312 44.316406 33.195312 L 47.5 29.824219 L 47.414062 30.28125 L 47.335938 32.019531 L 48.300781 31.667969 L 48.222656 29.792969 L 47.882812 29.425781 L 47.929688 29.375 C 47.929688 29.375 47.707031 28.957031 47.414062 28.957031 C 47.121094 28.957031 45.351562 29.375 45.050781 29.304688 C 44.757812 29.230469 43.507812 25.898438 43.289062 25.761719 C 43.058594 25.617188 41.660156 23.328125 41.660156 23.328125 C 41.660156 23.328125 44.910156 27.21875 45.421875 28.75 C 45.722656 29.636719 46.847656 28.808594 47.765625 27.878906 L 48.007812 28.46875 L 48.59375 28.332031 L 48.523438 27.636719 L 49.1875 27.636719 L 49.1875 28.679688 L 48.964844 29.238281 L 48.886719 30.136719 L 49.480469 30.695312 L 49.773438 30.207031 L 50.730469 29.304688 L 51.835938 28.75 L 52.128906 29.304688 L 52.277344 30.070312 L 51.984375 30.90625 L 51.394531 31.394531 L 51.101562 32.644531 L 51.101562 33.269531 L 50.4375 32.851562 L 50.363281 31.53125 L 49.402344 31.601562 L 48.964844 32.78125 L 49.628906 33.757812 L 51.171875 33.964844 L 52.429688 32.78125 L 52.570312 30.496094 L 53.132812 29.753906 C 53.496094 30.691406 53.757812 31.667969 53.757812 32.578125 C 53.757812 33.574219 54.542969 32.070312 54.160156 29.03125 C 54.160156 29.023438 53.546875 21.796875 50.207031 18.449219 Z M 35.460938 21.445312 L 31.484375 21.308594 L 33.175781 19.914062 L 34.0625 19.914062 L 35.460938 20.890625 L 35.460938 21.445312 M 40.332031 20.964844 L 40.332031 21.589844 L 38.640625 21.589844 L 38.78125 22.003906 L 37.753906 22.140625 L 37.675781 22.488281 L 36.941406 22.351562 L 35.613281 22.078125 L 35.832031 21.726562 L 36.054688 21.308594 L 36.796875 20.539062 L 37.089844 21.101562 L 38.195312 21.027344 L 38.78125 20.402344 L 41.074219 20.820312 L 40.332031 20.964844 M 40.476562 20.058594 L 39.597656 20.195312 L 39.445312 19.570312 L 40.554688 19.433594 L 40.703125 18.800781 L 41.511719 19.640625 L 40.476562 20.058594 M 44.757812 41.671875 L 44.238281 42.097656 L 44.308594 43.136719 L 44.972656 43.136719 L 44.972656 42.234375 L 45.566406 41.464844 L 45.566406 39.871094 L 45.195312 39.796875 L 44.757812 41.671875 M 39.816406 39.589844 C 39.816406 39.589844 39.296875 39.726562 39.890625 39.941406 C 40.476562 40.148438 42.839844 36.535156 42.839844 36.535156 L 40.847656 37.785156 L 39.816406 39.589844 M 35.800781 52.917969 L 35.359375 52.492188 L 34.480469 52.355469 L 34.328125 52.78125 L 33.152344 52.636719 L 33.074219 52.078125 L 32.1875 52.078125 L 31.230469 52.636719 L 29.539062 52.636719 L 29.386719 52.21875 L 26.667969 51.933594 L 26.222656 52.355469 L 25.117188 52.078125 L 24.96875 51.101562 L 24.453125 51.023438 L 23.859375 52.078125 L 21.875 52.003906 C 22.234375 52.175781 25.203125 53.945312 29.757812 54.316406 C 35.800781 54.804688 38.679688 53.339844 38.679688 53.339844 L 38.457031 53.125 Z "/>
</g>
</g>
</svg>
